src/lib/packages/icons/src/assets/filled/activity-heart-circle.svg

<svg width="24" height="24" viewBox="0 0 24 24" fill="none" xmlns="http://www.w3.org/2000/svg">
<path d="M20.63 8.81008C19.47 4.72008 15.55 1.91003 11.3 2.00003C6.14998 2.11003 2.00999 6.3 1.99999 11.47C1.98999 15.8 4.99001 19.7 9.20001 20.72C10.86 21.13 12.52 21.0799 14.02 20.6599C14.21 20.5999 14.29 20.38 14.19 20.2C13.91 19.74 13.7 19.2199 13.59 18.6399C13.34 17.3399 13.61 16.09 14.33 15.2C14.96 14.43 15.89 14 16.96 14C17.57 14 18.08 14.1599 18.5 14.4099C18.92 14.1599 19.43 14 20.04 14H20.05C20.16 14 20.26 14 20.36 14.01C20.4 14.015 20.433 14.013 20.454 14.013C20.574 14.013 20.652 13.9521 20.692 13.8421C20.712 13.8021 20.717 13.758 20.73 13.72C21.11 12.18 21.1 10.4801 20.63 8.81008ZM16.53 10.23L14.016 12.7439C13.373 13.3859 12.328 13.3871 11.683 12.7451L10.253 11.318C10.194 11.259 10.099 11.26 10.04 11.318L7.52899 13.8291C7.38299 13.9751 7.19099 14.0491 6.99899 14.0491C6.80699 14.0491 6.61499 13.9761 6.46899 13.8291C6.17599 13.5361 6.17599 13.0611 6.46899 12.7681L8.98001 10.257C9.62401 9.61398 10.67 9.61401 11.313 10.256L12.743 11.683C12.802 11.741 12.896 11.741 12.956 11.683L15.47 9.16897C15.763 8.87597 16.238 8.87597 16.531 9.16897C16.824 9.46197 16.823 9.93801 16.53 10.23ZM21.93 18.3501C21.48 20.6701 18.5 22 18.5 22C18.5 22 15.52 20.6701 15.07 18.3501C14.79 16.9401 15.4 15.51 16.95 15.5C16.96 15.5 16.96 15.5 16.96 15.5C18.11 15.5 18.5 16.6399 18.5 16.6399C18.5 16.6399 18.89 15.5 20.04 15.5C20.04 15.5 20.04 15.5 20.05 15.5C21.61 15.51 22.21 16.9401 21.93 18.3501Z" fill="currentColor"/>
</svg>

<svg xmlns="http://www.w3.org/2000/svg" width="24" height="24" fill="none"><path fill="currentColor" d="M20.63 8.81C19.47 4.72 15.55 1.91 11.3 2c-5.15.11-9.29 4.3-9.3 9.47-.01 4.33 2.99 8.23 7.2 9.25 1.66.41 3.32.36 4.82-.06.19-.06.27-.28.17-.46-.28-.46-.49-.98-.6-1.56-.25-1.3.02-2.55.74-3.44.63-.77 1.56-1.2 2.63-1.2.61 0 1.12.16 1.54.41.42-.25.93-.41 1.54-.41h.01c.11 0 .21 0 .31.01.04.005.073.003.094.003.12 0 .198-.06.238-.17.02-.04.025-.085.038-.123.38-1.54.37-3.24-.1-4.91Zm-4.1 1.42-2.514 2.514a1.654 1.654 0 0 1-2.333.001l-1.43-1.427a.151.151 0 0 0-.213 0l-2.511 2.511a.748.748 0 0 1-1.06 0 .75.75 0 0 1 0-1.06l2.511-2.512a1.653 1.653 0 0 1 2.333-.001l1.43 1.427a.152.152 0 0 0 .213 0l2.514-2.514a.75.75 0 1 1 1.06 1.061Zm5.4 8.12C21.48 20.67 18.5 22 18.5 22s-2.98-1.33-3.43-3.65c-.28-1.41.33-2.84 1.88-2.85h.01c1.15 0 1.54 1.14 1.54 1.14s.39-1.14 1.54-1.14h.01c1.56.01 2.16 1.44 1.88 2.85Z"/></svg>
